svgs/materials/action/shopping_bag.svg

<?xml version="1.0" encoding="UTF-8" standalone="no"?>
<svg
   enable-background="new 0 0 24 24"
   height="24"
   viewBox="0 0 24 24"
   width="24"
   version="1.1"
   id="svg8"
   sodipodi:docname="shopping_bag.svg"
   inkscape:version="1.2 (dc2aeda, 2022-05-15)"
   xmlns:inkscape="http://www.inkscape.org/namespaces/inkscape"
   xmlns:sodipodi="http://sodipodi.sourceforge.net/DTD/sodipodi-0.dtd"
   xmlns="http://www.w3.org/2000/svg"
   xmlns:svg="http://www.w3.org/2000/svg">
  <defs
     id="defs12" />
  <sodipodi:namedview
     id="namedview10"
     pagecolor="#ffffff"
     bordercolor="#000000"
     borderopacity="0.25"
     inkscape:showpageshadow="2"
     inkscape:pageopacity="0.0"
     inkscape:pagecheckerboard="0"
     inkscape:deskcolor="#d1d1d1"
     showgrid="false"
     inkscape:zoom="9.8333333"
     inkscape:cx="11.949153"
     inkscape:cy="12"
     inkscape:window-width="1309"
     inkscape:window-height="456"
     inkscape:window-x="0"
     inkscape:window-y="25"
     inkscape:window-maximized="0"
     inkscape:current-layer="svg8" />
  <path
     id="rect2"
     style="fill:none"
     d="M 0,0 H 24 V 24 H 0 Z" />
  <path
     d="M 18,6 H 16 C 16,3.79 14.21,2 12,2 9.79,2 8,3.79 8,6 H 6 C 4.9,6 4,6.9 4,8 v 12 c 0,1.1 0.9,2 2,2 h 12 c 1.1,0 2,-0.9 2,-2 V 8 C 20,6.9 19.1,6 18,6 Z m -8,4 C 10,10.55 9.55,11 9,11 8.45,11 8,10.55 8,10 V 8 h 2 z m 2,-6 c 1.1,0 2,0.9 2,2 h -4 c 0,-1.1 0.9,-2 2,-2 z m 4,6 c 0,0.55 -0.45,1 -1,1 -0.55,0 -1,-0.45 -1,-1 V 8 h 2 z"
     id="path4" />
</svg>

<svg xmlns="http://www.w3.org/2000/svg" enable-background="new 0 0 24 24" height="24" viewBox="0 0 24 24" width="24"><g><rect fill="none" height="24" width="24"/><path d="M18,6h-2c0-2.21-1.79-4-4-4S8,3.79,8,6H6C4.9,6,4,6.9,4,8v12c0,1.1,0.9,2,2,2h12c1.1,0,2-0.9,2-2V8C20,6.9,19.1,6,18,6z M10,10c0,0.55-0.45,1-1,1s-1-0.45-1-1V8h2V10z M12,4c1.1,0,2,0.9,2,2h-4C10,4.9,10.9,4,12,4z M16,10c0,0.55-0.45,1-1,1 s-1-0.45-1-1V8h2V10z"/></g></svg>
